web/workspace/public/assets/icons/white/folder-locked.svg

<svg xmlns="http://www.w3.org/2000/svg" width="30" height="30" viewBox="0 0 30 30"><path d="M15 4l-2-2H1v26h28V4H15zm12 22H3V10h24v16zm0-18H3V4h9.172l2 2H27v2zm-7 9h-2v-2a3.001 3.001 0 0 0-6 0v2h-2v7h10v-7zm-6-2a1 1 0 1 1 2 0v2h-2v-2zm4 7h-6v-3h6v3z" fill="#fff"/></svg>

<?xml version="1.0" encoding="iso-8859-1"?>
<!-- Generator: Adobe Illustrator 14.0.0, SVG Export Plug-In . SVG Version: 6.00 Build 43363)  -->
<!DOCTYPE svg PUBLIC "-//W3C//DTD SVG 1.1//EN" "http://www.w3.org/Graphics/SVG/1.1/DTD/svg11.dtd">
<svg version="1.1" id="Layer_1" xmlns="http://www.w3.org/2000/svg" xmlns:xlink="http://www.w3.org/1999/xlink" x="0px" y="0px"
	 width="30px" height="30px" viewBox="0 0 30 30" style="enable-background:new 0 0 30 30;" xml:space="preserve">
<path style="fill:#fff" d="M15,4l-2-2H1v26h28V4H15z M27,26H3V10h24V26z M27,8H3V4h9.172l2,2H27V8z M20,17h-2v-2c0-1.656-1.344-3-3-3s-3,1.344-3,3v2
	h-2v7h10V17z M14,15c0-0.553,0.447-1,1-1s1,0.447,1,1v2h-2V15z M18,22h-6v-3h6V22z"/>
</svg>
